src/16/actions/go-next-use.svg

<svg xmlns="http://www.w3.org/2000/svg" width="16" height="16"><defs><style id="current-color-scheme" type="text/css"></style></defs><path d="M1 1v6h14V1H1zm0 8v6l4-3-4-3zm7 1v4h1v-4H8zm2 0v4h5v-4h-5z" fill="currentColor" color="#565656"/></svg>

<svg xmlns="http://www.w3.org/2000/svg" width="16" height="16" viewBox="0 0 16 16">
 <defs>
  <style id="current-color-scheme" type="text/css">
   .ColorScheme-Text { color:#565656; } .ColorScheme-Highlight { color:#5294e2; }
  </style>
 </defs>
 <path style="fill:currentColor" class="ColorScheme-Text" d="M 1 1 L 1 7 L 15 7 L 15 1 L 1 1 z M 1 9 L 1 15 L 5 12 L 1 9 z M 8 10 L 8 14 L 9 14 L 9 10 L 8 10 z M 10 10 L 10 14 L 15 14 L 15 10 L 10 10 z"/>
</svg>
